src/assets-svg/gameboy.svg

<svg width="17" height="17" viewBox="0 0 17 17" fill="none" xmlns="http://www.w3.org/2000/svg">
<path d="M11.3333 16.1149H5.66667C3.08125 16.1149 1.59375 14.6274 1.59375 12.042V4.95866C1.59375 2.37324 3.08125 0.885742 5.66667 0.885742H11.3333C13.9187 0.885742 15.4062 2.37324 15.4062 4.95866V12.042C15.4062 14.6274 13.9187 16.1149 11.3333 16.1149ZM5.66667 1.94824C3.64083 1.94824 2.65625 2.93283 2.65625 4.95866V12.042C2.65625 14.0678 3.64083 15.0524 5.66667 15.0524H11.3333C13.3592 15.0524 14.3438 14.0678 14.3438 12.042V4.95866C14.3438 2.93283 13.3592 1.94824 11.3333 1.94824H5.66667Z" fill="#292D32"/>
<path d="M11.5104 8.32324H5.48958C4.51208 8.32324 3.71875 7.52991 3.71875 6.55241V4.78158C3.71875 3.80408 4.51208 3.01074 5.48958 3.01074H11.5104C12.4879 3.01074 13.2812 3.80408 13.2812 4.78158V6.55241C13.2812 7.52991 12.4879 8.32324 11.5104 8.32324ZM5.48958 4.07324C5.1 4.07324 4.78125 4.39199 4.78125 4.78158V6.55241C4.78125 6.94199 5.1 7.26074 5.48958 7.26074H11.5104C11.9 7.26074 12.2188 6.94199 12.2188 6.55241V4.78158C12.2188 4.39199 11.9 4.07324 11.5104 4.07324H5.48958Z" fill="#292D32"/>
<path d="M5.66669 12.9839C5.5321 12.9839 5.39752 12.9342 5.29127 12.828C5.08585 12.6226 5.08585 12.2826 5.29127 12.0772L6.92043 10.448C7.12584 10.2426 7.46584 10.2426 7.67126 10.448C7.87668 10.6534 7.87668 10.9934 7.67126 11.1988L6.0421 12.828C5.93585 12.9342 5.80127 12.9839 5.66669 12.9839Z" fill="#292D32"/>
<path d="M7.31684 13.0053C7.18226 13.0053 7.04767 12.9557 6.94142 12.8495L5.31227 11.2203C5.10685 11.0149 5.10685 10.6749 5.31227 10.4695C5.51768 10.2641 5.85768 10.2641 6.0631 10.4695L7.69226 12.0986C7.89767 12.3041 7.89767 12.6441 7.69226 12.8495C7.58601 12.9557 7.45142 13.0053 7.31684 13.0053Z" fill="#292D32"/>
<path d="M11.6945 11.5671C11.305 11.5671 10.9791 11.2483 10.9791 10.8587C10.9791 10.4691 11.2908 10.1504 11.6804 10.1504H11.6945C12.0841 10.1504 12.4029 10.4691 12.4029 10.8587C12.4029 11.2483 12.0841 11.5671 11.6945 11.5671Z" fill="#292D32"/>
<path d="M10.2639 13.0966C9.87429 13.0966 9.55554 12.7849 9.55554 12.3954V12.3812C9.55554 11.9916 9.87429 11.6729 10.2639 11.6729C10.6535 11.6729 10.9722 11.9916 10.9722 12.3812C10.9722 12.7708 10.6535 13.0966 10.2639 13.0966Z" fill="#292D32"/>
</svg>

<svg width="17" height="17" fill="none" xmlns="http://www.w3.org/2000/svg"><path d="M11.333 16.115H5.667c-2.586 0-4.073-1.488-4.073-4.073V4.959C1.594 2.373 3.08.886 5.667.886h5.666c2.586 0 4.073 1.487 4.073 4.073v7.083c0 2.585-1.487 4.073-4.073 4.073ZM5.667 1.948c-2.026 0-3.01.985-3.01 3.01v7.084c0 2.026.984 3.01 3.01 3.01h5.666c2.026 0 3.01-.984 3.01-3.01V4.959c0-2.026-.984-3.01-3.01-3.01H5.667Z" fill="#292D32"/><path d="M11.51 8.323H5.49c-.978 0-1.771-.793-1.771-1.77V4.781c0-.978.793-1.771 1.77-1.771h6.021c.978 0 1.771.793 1.771 1.77v1.771c0 .978-.793 1.771-1.77 1.771Zm-6.02-4.25a.71.71 0 0 0-.709.709v1.77c0 .39.319.709.709.709h6.02a.71.71 0 0 0 .709-.709v-1.77a.71.71 0 0 0-.709-.709H5.49ZM5.667 12.984a.526.526 0 0 1-.376-.156.534.534 0 0 1 0-.75l1.63-1.63a.534.534 0 0 1 .75 0 .534.534 0 0 1 0 .75l-1.629 1.63a.526.526 0 0 1-.375.156Z" fill="#292D32"/><path d="M7.317 13.005a.526.526 0 0 1-.376-.155l-1.629-1.63a.534.534 0 0 1 0-.75.534.534 0 0 1 .751 0l1.63 1.629a.535.535 0 0 1 0 .75.526.526 0 0 1-.376.156ZM11.694 11.567a.717.717 0 0 1-.715-.708c0-.39.312-.709.701-.709h.014a.71.71 0 0 1 .709.709.71.71 0 0 1-.709.708ZM10.264 13.097a.704.704 0 0 1-.708-.702v-.014a.71.71 0 0 1 .708-.708.71.71 0 0 1 .708.708c0 .39-.319.716-.708.716Z" fill="#292D32"/></svg>
